Origami/24x24/apps/myrulib.svg

<svg width="24" height="24" version="1" xmlns="http://www.w3.org/2000/svg">
 <path d="m5 2c-0.554 0-1 0.446-1 1v18c0 0.554 0.446 1 1 1h14c0.554 0 1-0.446 1-1v-18c0-0.554-0.446-1-1-1h-14z" style="fill:#7a6a4d"/>
 <path d="m5 2c-0.554 0-1 0.446-1 1v18c0 0.554 0.446 1 1 1h2v-20h-1.9998z" style="opacity:.2"/>
 <path d="m15 2.5v9l1.5-1 1.5 1v-9z" style="opacity:.2"/>
 <path d="m15 2v9l1.5-1 1.5 1v-9z" style="fill:#f2bc61"/>
 <path d="m5 2c-0.554 0-1 0.446-1 1v0.5c0-0.554 0.446-1 1-1h14c0.554 0 1 0.446 1 1v-0.5c0-0.554-0.446-1-1-1h-14z" style="fill:#ffffff;opacity:.1"/>
 <path d="m4 21v0.5c0 0.554 0.446 1 1 1h14c0.554 0 1-0.446 1-1v-0.5c0 0.554-0.446 1-1 1h-14c-0.554 0-1-0.446-1-1z" style="opacity:.2"/>
</svg>

<svg xmlns="http://www.w3.org/2000/svg" width="24" height="24" version="1">
 <path style="fill:#7a6a4d" d="M 5,2 C 4.446,2 4,2.446 4,3 l 0,18 c 0,0.554 0.446,1 1,1 l 14,0 c 0.554,0 1,-0.446 1,-1 L 20,3 C 20,2.446 19.554,2 19,2 L 5,2 Z"/>
 <path style="opacity:0.2" d="M 5,2 C 4.446,2 4,2.446 4,3 l 0,18 c 0,0.554 0.446,1 1,1 L 7,22 7,2 5.0002,2 Z"/>
 <path style="opacity:0.2" d="m 15,2.5 0,9 1.5,-1 1.5,1 0,-9 z"/>
 <path style="fill:#f2bc61" d="m 15,2 0,9 1.5,-1 1.5,1 0,-9 z"/>
 <path style="opacity:0.1;fill:#ffffff" d="M 5,2 C 4.446,2 4,2.446 4,3 l 0,0.5 c 0,-0.554 0.446,-1 1,-1 l 14,0 c 0.554,0 1,0.446 1,1 L 20,3 C 20,2.446 19.554,2 19,2 L 5,2 Z"/>
 <path style="opacity:0.2" d="m 4,21 0,0.5 c 0,0.554 0.446,1 1,1 l 14,0 c 0.554,0 1,-0.446 1,-1 L 20,21 c 0,0.554 -0.446,1 -1,1 L 5,22 C 4.446,22 4,21.554 4,21 Z"/>
</svg>
